X:1
T: Lady Susan Gordon's Strathspey
C:
R:Strathspey
Q: 128
K:Bb
M:4/4
L:1/16
|:DE|F3D B,D3 F3D B,D3|F2Bc d3B c2C2 C2DE|F3D B,3D F3G B3c|d3B edcB F2B2 B2DE|
F3D B,D3 F3D B,D3|F2Bc d3B c2C2 C2DE|F3D B,3D F3G B3c|d3B edcB F2B2 B2g2|
f3B edcB F3B DB3|f3B edcB gc3 c3g|f3B edcB F3B D3B|ABc2 F3e dB3 B3g|
f3B edcB F3B D3B|f3B edcB gc3 c3e|df3 eg3 df3 c3d|F3G B3c d2B2 B2:|
